X: 145
T:Ribeirana
M:6/8
L:1/8
Q:200
C:Trad
R:Ribeirana
K:C
EG |: {c}GEG {c}GEG | {c}"~"GEC "F."cEG | {c}GEG {c}GEG |
_B2A "F."cFA | {c}AFA cFA | {c}AFA cFA | {c} AFA cFA|
GEC "F."cEG :| c"F."gc ABA |GEC "F."cEG | {c} "~"GFE DEF |
{B}A2G "F."cEG | c"F."gc ABA |GEC "F."cEG | {c} "~"GFE DED |
{B,}C3 ||

